X:128
T:My Stra
R:jig
C:Bruce Osborne - June 2002
Z:abc by bosborne@kos.net
M:6/8
L:1/8
K:Amaj
c/B/|AcA EAc|fec ecA|EGB dcB|Acf ecB|\
AcA EAc|fec ecA|EGB dcB|AcB A2:|
|:E|FGF FGF|ECE Acf|ecf ecB|AGA B2 E|\
FGF FGF|ECE Acf|ecf ecA|EGB A2:|
